X:1
T:[ID 2-15]
T:[ID 2-15]
T:Bezeichnung standardisiert: Anglaise Angl. Mahomet N. mit 4 Theil [mit Trio]
T:Urheber unbekannt Datum in der hier transkribierten schriftlichen Quelle: 1776 - 1791
C:Urheber unbekannt
C:Datum in der hier transkribierten schriftlichen Quelle: 1776 - 1791
L:1/8
M:2/4
K:D
V:1 treble 
V:1
 d2 (c/d/e/c/) | dc/B/ A2 | B/A/G/F/ EB | A/G/F/E/ D2 | f2 d/e/f/c/ | e2 c/d/e/c/ | dBA^G | A4 :: %8
 A2 (c/d/e/c/) | A2 (d/e/f/d/) | A(e/f/) (g/f/e/d/) | (c/d/e/c/) A2 | d2 c/d/e/c/ | dc/B/ A2 | %14
 Bg f/e/d/c/ | d4 :|[M:2/4]"^Trio" (!fermata!af)(af) | a2 d'2 | a>bag |{g} fe/f/ d2 | (af)(af) | %21
 a2 d'2 | bagf |{f} e4 :: (ge)(ge) | e2 g2 | fa{b}ag/f/ | f2 e2 | (af)(af) | a2 d'2 | agfe | %31
{e} d4 :| %32

